src/lib/packages/icons/src/assets/filled/layout-web-7.svg

<svg width="24" height="24" viewBox="0 0 24 24" fill="none" xmlns="http://www.w3.org/2000/svg">
<path d="M21 7V8.94995C21 9.11595 20.866 9.25 20.7 9.25H3.30005C3.13405 9.25 3 9.11595 3 8.94995V7C3 5 4 4 6 4H18C20 4 21 5 21 7ZM3 11.05V17C3 19 4 20 6 20H18C20 20 21 19 21 17V11.05C21 10.884 20.866 10.75 20.7 10.75H3.30005C3.13405 10.75 3 10.884 3 11.05Z" fill="currentColor"/>
</svg>

<svg xmlns="http://www.w3.org/2000/svg" width="24" height="24" fill="none"><path fill="currentColor" d="M21 7v1.95a.3.3 0 0 1-.3.3H3.3a.3.3 0 0 1-.3-.3V7c0-2 1-3 3-3h12c2 0 3 1 3 3ZM3 11.05V17c0 2 1 3 3 3h12c2 0 3-1 3-3v-5.95a.3.3 0 0 0-.3-.3H3.3a.3.3 0 0 0-.3.3Z"/></svg>
